X: 138
T: Broń mię, mój Panie, od ludzi złośliwych,
C: Mikołaj Gomółka
%%abc-version 2.0
%%abcx-abcm2ps-target-version 5.9.1 (29 Sep 2008)
%%abc-creator hum2abc beta
%%abcx-conversion-date 2021/10/04 07:59:10
%%abc-edited-by Anna Matuszewska
%%abcx-initial-encoding-date 2020-02-22
%%humdrum-veritas 4272410616
%%humdrum-veritas-data 1497697056
%%linebreak <none>
%%barnumbers 0
L: 1/4
M: C|
N: Derived from pl-wn--sd-xvi-qu-273--140_gomolka-mikolaj--bron-mie-moj-panie-od-ludzi-zlosliwych.krn
%%staves [1 2 3 4]
V: 1
V: 2 clef=alto
V: 3 clef=tenor
V: 4 clef=bass
K: C
[V:1] A4A2E2 | 
[V:2] D4C3B, | 
[V:3] A,4A,2G,2 | 
[V:4] D,4A,,2C,2 [|] 
[V:1] F4E2c2 | 
[V:2] A,G,A,B,CDE2 | 
[V:3] F,2>G,2A,B,C2 | 
[V:4] D,4A,,2A,2 [|] 
[V:1] c4c2B2 | 
[V:2] E4^F2E4 | 
[V:3] C2>B,2A,2^G,2 | 
[V:4] A,4A,2E,2 [|] 
[V:1] A4G4 | 
[V:2] D2E4 | 
[V:3] A,4B,4 | 
[V:4] F,4E,4 | 
[V:1] B4B2A2 [I:setbarnb 6]| 
[V:2] G4^F2F2 | 
[V:3] E4C4 | 
[V:4] E,4B,,2D,2 [|] 
[V:1] c4B2d4 | 
[V:2] E2>F2E2DE | 
[V:3] C2A,2G,A,B,C | 
[V:4] A,,B,,C,D,E,2D,3 [|] 
[V:1] A2>B2c2 | 
[V:2] F2F2F2G2 | 
[V:3] D2C2>D2E2 | 
[V:4] E,F,4C,2 [|] 
[V:1] c2B2c2B2 | 
[V:2] G2>F2E2G3 | 
[V:3] D2D2C2D2 | 
[V:4] G,2G,,2C,2G,2 [|] 
[V:1] B2cBA^GA2 | 
[V:2] FE2F2ED | 
[V:3] EDC4B,A, | 
[V:4] E,2A,G,F,E,F,2 [|] 
[V:1] ^G2E2F2E2 | 
[V:2] E2^C2D2E2 | 
[V:3] B,2A,2>B,2C2 | 
[V:4] E,2A,,2D,2C,2 [|] 
[V:1] C2D2E2 | 
[V:2] F2F2G3 [|] 
[V:3] A,2A,2B,3 [|] 
[V:4] F,2F,2E,2 | 
[V:1] B3 [I:setbarnb 12]| 
[V:2] F | 
[V:3] A, | 
[V:4] E,2 [|] 
[V:1] A^G2A3B | 
[V:2] E2E4D2 | 
[V:3] ^G,2B,2A,4 | 
[V:4] E,2>D,2^C,2D,2 [|] 
[V:1] c2BAGFE2 | 
[V:2] E2>F2G4 | 
[V:3] A,2^G,2>A,2B,2 | 
[V:4] A,,2E,2>F,2G,2 [|] 
[V:1] FGA4G2 | 
[V:2] C2>D2E3D | 
[V:3] A,2>B,2C2B,2 | 
[V:4] A,2F,2E,4 [|] 
[V:1] A8 |]  
[V:2] ^C8 |]  
[V:3] A,8 |]  
[V:4] A,,8 | 


